X:29
T:Pioche [rythme certaines mesures ]
R:
S:
N:
A:Champagne
G:
O:France
Z:<anamnese@laposte.net>
M:2/4
L:1/8
Q:1/4=135
K:A
a4 | g4 | f3e2f3g2 | e4 | d>f e>d | c>e d>c | B>d c>B | c2A2 :|2 A2A2 |:
Ac Ac | BB/c/ dB | GB GB | Ac e2 | Ac Ac | BB/c/ dB | GB GB | Ac A2 :|
a4 | g4 | f3ef3g | e4 | d>f e>d | c>e d>c | B>d c>B | c2A2 :|2 A2A2 |:
Ac/e/ ag | fe dc | Bc/d/ ed | cB cA | Ac/e/ ag | fe dc | Bc/d/ ed | cA A2 :| a4 | g4 | a4 ||
